X: 6421
T: Castle, The
R: hornpipe
M: 4/4
K: Amajor
ED|CEAE CEAE|CEAc ecAc|dcBc defg|ae (3cBA BAFD|
CEAE CEAE|DFAF DFAF|EGBG EGBG|Aaec A2:|
cd|edcd eaga|fedc B2Bc|dcBc df^ef|gf=ed c2 cd|
eaga eaga|eb^ab eb^ab|ec'^bc' d'efg|a2 g2 a2:|
cd|ecAE CEAc|fdBG E2Bc|dBGE B,EGB|cAEC A,2cd|
ecAc dcdf|agaf fedc|Bcdf eBGB|A2 c2 A2:|

